public/assets/img/partners3.svg

<svg width="72" height="72" viewBox="0 0 72 72" fill="none" xmlns="http://www.w3.org/2000/svg">
<path fill-rule="evenodd" clip-rule="evenodd" d="M12.9464 11.25C11.8107 5.4 16.3533 0 22.2587 0C27.4827 0 31.7981 4.275 31.7981 9.45V21.15C33.1609 21.15 34.5237 20.925 35.8864 20.925C37.2492 20.925 38.3849 20.925 39.7476 21.15V9.45C39.7476 4.275 44.0631 0 49.2871 0C55.1924 0 59.735 5.4 58.8265 11.25L56.3281 24.975C65.1861 28.8 72 35.55 72 43.875V49.05C72 56.025 67.4574 61.875 60.8707 65.7C54.2839 69.75 45.653 72 35.8864 72C26.1199 72 17.489 69.75 10.9022 65.7C4.54259 61.875 0 56.025 0 49.05V43.875C0 35.55 6.58675 28.8 15.4448 24.975L12.9464 11.25ZM52.9211 26.775L55.8738 10.575C56.5552 6.525 53.6025 2.7 49.2871 2.7C45.653 2.7 42.7003 5.625 42.7003 9.225V24.075C41.7918 23.85 40.6562 23.85 39.7476 23.85C38.3849 23.85 37.2492 23.625 35.8864 23.625C34.5237 23.625 33.1609 23.625 31.7981 23.85C30.8896 23.85 29.7539 24.075 28.8454 24.075V9.45C28.8454 5.85 25.8927 2.925 22.2587 2.925C18.1703 2.925 14.9905 6.75 15.8991 10.8L18.8517 27C9.3123 30.6 2.95268 36.9 2.95268 44.1V49.275C2.95268 60.3 17.7161 69.3 35.8864 69.3C54.0568 69.3 68.8202 60.3 68.8202 49.275V44.1C69.0473 36.675 62.6877 30.375 52.9211 26.775Z" fill="#633001"/>
<path d="M69.0473 49.05C69.0473 60.075 54.2839 69.075 36.1136 69.075C17.9432 69.075 3.17981 60.075 3.17981 49.05V43.875H69.2745V49.05H69.0473Z" fill="#FEDC90"/>
<path fill-rule="evenodd" clip-rule="evenodd" d="M15.8991 10.7998C14.9905 6.74981 18.1703 2.9248 22.2587 2.9248C25.8927 2.9248 28.8454 5.8498 28.8454 9.4498V24.2998C31.1167 24.0748 33.388 23.8498 35.8864 23.8498C38.1577 23.8498 40.429 24.0748 42.7003 24.2998V9.4498C42.7003 5.8498 45.653 2.9248 49.2871 2.9248C53.3754 2.9248 56.5552 6.74981 55.8738 10.7998L52.9211 26.9998C62.4606 30.5998 69.0473 36.8998 69.0473 44.0998C69.0473 55.1248 54.2839 64.1248 36.1136 64.1248C17.9432 64.1248 3.17981 55.1248 3.17981 44.0998C3.17981 36.8998 9.53943 30.5998 19.0789 26.9998L15.8991 10.7998Z" fill="#D1884F"/>
<path d="M26.8013 42.525C26.8013 45.45 25.2114 47.925 23.1672 47.925C21.123 47.925 19.5331 45.45 19.5331 42.525C19.5331 39.6 21.123 37.125 23.1672 37.125C25.2114 37.125 26.8013 39.6 26.8013 42.525Z" fill="#633001"/>
<path d="M52.0126 42.525C52.0126 45.45 50.4227 47.925 48.3785 47.925C46.3344 47.925 44.7445 45.45 44.7445 42.525C44.7445 39.6 46.3344 37.125 48.3785 37.125C50.4227 37.125 52.0126 39.6 52.0126 42.525Z" fill="#633001"/>
</svg>

<svg width="72" height="72" fill="none" xmlns="http://www.w3.org/2000/svg"><path fill-rule="evenodd" clip-rule="evenodd" d="M12.946 11.25C11.811 5.4 16.353 0 22.26 0c5.224 0 9.54 4.275 9.54 9.45v11.7c1.362 0 2.725-.225 4.087-.225 1.363 0 2.499 0 3.862.225V9.45c0-5.175 4.315-9.45 9.54-9.45 5.904 0 10.447 5.4 9.539 11.25l-2.499 13.725C65.186 28.8 72 35.55 72 43.875v5.175c0 6.975-4.543 12.825-11.13 16.65-6.586 4.05-15.217 6.3-24.984 6.3-9.766 0-18.397-2.25-24.984-6.3C4.542 61.875 0 56.025 0 49.05v-5.175c0-8.325 6.587-15.075 15.445-18.9L12.946 11.25Zm39.975 15.525 2.953-16.2c.681-4.05-2.272-7.875-6.587-7.875-3.634 0-6.587 2.925-6.587 6.525v14.85c-.908-.225-2.044-.225-2.952-.225-1.363 0-2.499-.225-3.862-.225-1.362 0-2.725 0-4.088.225-.908 0-2.044.225-2.953.225V9.45c0-3.6-2.952-6.525-6.586-6.525-4.089 0-7.268 3.825-6.36 7.875L18.852 27c-9.54 3.6-15.9 9.9-15.9 17.1v5.175C2.953 60.3 17.717 69.3 35.887 69.3c18.17 0 32.934-9 32.934-20.025V44.1c.227-7.425-6.132-13.725-15.899-17.325Z" fill="#633001"/><path d="M69.047 49.05c0 11.025-14.763 20.025-32.933 20.025S3.18 60.075 3.18 49.05v-5.175h66.095v5.175h-.228Z" fill="#FEDC90"/><path fill-rule="evenodd" clip-rule="evenodd" d="M15.9 10.8c-.91-4.05 2.27-7.875 6.359-7.875 3.634 0 6.586 2.925 6.586 6.525V24.3c2.272-.225 4.543-.45 7.041-.45 2.272 0 4.543.225 6.814.45V9.45c0-3.6 2.953-6.525 6.587-6.525 4.088 0 7.268 3.825 6.587 7.875L52.92 27c9.54 3.6 16.126 9.9 16.126 17.1 0 11.025-14.763 20.025-32.933 20.025S3.18 55.125 3.18 44.1c0-7.2 6.36-13.5 15.899-17.1l-3.18-16.2Z" fill="#D1884F"/><path d="M26.801 42.525c0 2.925-1.59 5.4-3.634 5.4-2.044 0-3.634-2.475-3.634-5.4 0-2.925 1.59-5.4 3.634-5.4 2.044 0 3.634 2.475 3.634 5.4ZM52.013 42.525c0 2.925-1.59 5.4-3.634 5.4-2.045 0-3.634-2.475-3.634-5.4 0-2.925 1.59-5.4 3.634-5.4 2.044 0 3.634 2.475 3.634 5.4Z" fill="#633001"/></svg>
